X:398
T:New Spanish Entree & Saraband. (p)1698.PLFD.398
M:6/4
L:1/4
Q:3/4=80
S:Playford, Dancing Master,9th Ed,extra Supplement(9D),1698
O:England
N:"Danced by Monsieur L'Abbe before his Majesty at Kensington, and at the
N:theatre in Little Lincoln's Inn Fields, with great applause".
H:1698.
Z:Chris Partington.
K:F
d/g/|^f2dA>Bc|B>AGG>GA|B>cdc>d_e|d>cBB>d_e|
fFBB>cA|B3-B2:||d/e/|f>gag>ab|a>gff>ae|
f>gfe>fd|c>=BAA>Bc|=B>cdd>e^c|d3-d>dc|=B>AGG>_ed|
c>BAA>f_e|d>efe>fg|^fgabBc|dDGG>A^F|G3G2|]
M:3/4
L:1/4
Q:3/4=60
|:f|"^SARABAND"ba>g|fdf|gf>_e|dcd|GAB|A2f|ba>g|fdf|
gf>_e|dB_e|dc>B|B2d|dB>A|BGg|ba>g|adg|
g/a/^f>g|g2d|gg>f|eec|f>ga|def|ge>e|f2f|
ba>g|fdf|gf>_e|dcd|GAB|A2f|ba>g|fdf|
gf>_e|dc_e|dc>B|B2d|_ed>c|=BGg|_ag>f|gdf|
ed>c|c2c|ff>_e|dBB|_e>fg|cAB|cd>_e|d3:|
